X: 1
T: Pity Me
M: 4/4
L: 1/8
R: reel
K: Amaj
|:E|ABcA FAEC|DAFD EB~B2|ABcA FAEA|Fd~d2 ceBE|
ABcA FAEC|DAFD EB~B2|ABce fcef|(3=gfe fd BAA:|
|:d|ea~a2 gafa|ec (3Bcd Edcd|ea~a2 gece|fBBA B2cd|
ea~a2 gafa|ec (3Bcd Edcd|eAA=G EGDG|(3Bcd =gd BAA:|
